**harm	**harte	**silbe	**silbe	**silbe	**rhyme	**timestamp	**phrase	**leadinstrument	**kern
*M6/8	*M6/8	*	*	*	*	*	*	*	*
*	*	*	*	*	*	*	*	*	*
*	*	*	*	*	*	*	*	*	*
*c:	*c:	*	*	*	*	*c:	*c:	*c:	*c:
*	*	*	*	*	*	*	*	*	*
*	*	*	*	*	*	*	*	*	*
1r;	N	.	.	.	.	0	.	r	1r;
=1	=1	=1	=1	=1	=1	=1	=1	=1	=1
2.r	N	.	.	.	.	0.418	.	.	2.r
.	.	I've	.	.	.	.	.	.	.
.	.	paid	.	.	.	.	.	.	.
.	.	my	.	.	.	.	.	.	.
=2	=2	=2	=2	=2	=2	=2	=2	=2	=2
*>Letter>A	*>Letter>A	*>Letter>A	*>Letter>A	*>Letter>A	*>Letter>A	*>Letter>A	*>Letter>A	*>Letter>A	*>Letter>A
*>Label>Verse	*>Label>Verse	*>Label>Verse	*>Label>Verse	*>Label>Verse	*>Label>Verse	*>Label>Verse	*>Label>Verse	*>Label>Verse	*>Label>Verse
2.i	C:min	dues	.	.	A	1.387	newline	voice	2.C 2.e- 2.g
=3	=3	=3	=3	=3	=3	=3	=3	=3	=3
2.vf	G:sus4(b7)/4	.	.	.	.	3.324	.	voice	2.G 2.b- 2.dd
.	.	time	.	.	B	.	.	.	.
.	.	af-	.	.	.	.	.	.	.
.	.	-ter	.	.	.	.	.	.	.
.	.	time	.	.	B	.	.	.	.
=4	=4	=4	=4	=4	=4	=4	=4	=4	=4
2.i	C:min	_	.	.	.	5.261	.	voice	2.C 2.e- 2.g
.	.	.	.	.	.	.	.	.	.
=5	=5	=5	=5	=5	=5	=5	=5	=5	=5
2.vf	G:sus4(b7)/4	.	.	.	.	7.198	.	voice	2.G 2.b- 2.dd
.	.	I've	.	.	.	.	.	.	.
.	.	done	.	.	.	.	.	.	.
.	.	my	.	.	.	.	.	.	.
=6	=6	=6	=6	=6	=6	=6	=6	=6	=6
2.i	C:min	_	.	.	.	9.135	newline	voice	2.C 2.e- 2.g
.	.	sen-	.	.	.	.	.	.	.
.	.	-tence	.	.	.	.	.	.	.
.	.	.	.	.	.	.	.	.	.
=7	=7	=7	=7	=7	=7	=7	=7	=7	=7
2.vf	G:sus4(b7)/4	.	.	.	.	11.069	.	voice	2.G 2.b- 2.dd
.	.	but	.	.	.	.	.	.	.
.	.	co-	.	.	.	.	.	.	.
.	.	-mmit-	.	.	.	.	.	.	.
.	.	-ed	.	.	.	.	.	.	.
.	.	no	.	.	.	.	.	.	.
=8	=8	=8	=8	=8	=8	=8	=8	=8	=8
2.i	C:min	crime	.	.	B	13.003	.	voice	2.C 2.e- 2.g
.	.	_	.	.	.	.	.	.	.
.	.	.	.	.	.	.	.	.	.
=9	=9	=9	=9	=9	=9	=9	=9	=9	=9
2.vf	G:sus4(b7)/4	.	.	.	.	14.938	.	voice	2.G 2.b- 2.dd
.	.	And	.	.	.	.	.	.	.
.	.	bad	.	.	.	.	.	.	.
.	.	mis-	.	.	.	.	.	.	.
=10	=10	=10	=10	=10	=10	=10	=10	=10	=10
2.-III	E-:maj	-takes	.	.	.	16.872	newline	voice	2.E-- 2.g- 2.b--
.	.	.	.	.	.	.	.	.	.
.	.	.	.	.	.	.	.	.	.
=11	=11	=11	=11	=11	=11	=11	=11	=11	=11
2.-viif	B-:sus4(b7)/4	.	.	.	.	18.803	.	voice	2.B- 2.dd- 2.ff
.	.	I've	.	.	.	.	.	.	.
.	.	made	.	.	.	.	.	.	.
.	.	a	.	.	.	.	.	.	.
.	.	few	.	.	A	.	.	.	.
=12	=12	=12	=12	=12	=12	=12	=12	=12	=12
2.-III	E-:maj	_	.	.	.	20.735	.	voice	2.E-- 2.g- 2.b--
.	.	_	.	.	.	.	.	.	.
.	.	_	.	.	.	.	.	.	.
.	.	.	.	.	.	.	.	.	.
=13	=13	=13	=13	=13	=13	=13	=13	=13	=13
2.-viif	B-:sus4(b7)/4	.	.	.	.	22.667	.	voice	2.B- 2.dd- 2.ff
.	.	I've	.	.	.	.	.	.	.
.	.	had	.	.	.	.	.	.	.
.	.	my	.	.	.	.	.	.	.
=14	=14	=14	=14	=14	=14	=14	=14	=14	=14
4.-III	E-:maj	share	.	.	.	24.598	newline	voice	4.E-- 4.g- 4.b--
.	.	of	.	.	.	.	.	.	.
.	.	sand	.	.	.	.	.	.	.
4.-VIIb	B-:maj/3	kicked	.	.	.	25.552	.	voice	4.b- 4.D 4.ff
.	.	in	.	.	.	.	.	.	.
.	.	my	.	.	.	.	.	.	.
.	.	face	.	.	.	.	.	.	.
=15	=15	=15	=15	=15	=15	=15	=15	=15	=15
4.i	C:min	_	.	.	.	26.506	.	voice	4.C 4.e- 4.g
.	.	.	.	.	.	.	.	.	.
.	.	but	.	.	.	.	.	.	.
.	.	I've	.	.	.	.	.	.	.
4.IV7	F:7	_	.	.	.	27.46	.	voice	4.F 4.a 4.cc 4.ee-
.	.	come	.	.	.	.	.	.	.
.	.	_	.	.	.	.	.	.	.
=16	=16	=16	=16	=16	=16	=16	=16	=16	=16
2.-VII	B-:maj	_	.	.	.	28.413	.	voice	2.B- 2.dd 2.ff
.	.	through	.	.	A	.	.	.	.
.	.	_	And	.	.	.	.	.	.
.	.	.	the	.	.	.	.	.	.
.	.	.	beat	.	.	.	.	.	.
.	.	.	will	.	.	.	.	.	.
.	.	.	go	.	.	.	.	.	.
=17	=17	=17	=17	=17	=17	=17	=17	=17	=17
4.-vii	B-:sus4(b7)	.	on	on	.	30.321	.	voice	4.B- 4.dd- 4.ff
.	.	.	.	.	.	.	.	.	.
4.-VII7	B-:7(#11)	.	on	on	.	31.274	.	voice	4.B- 4.dd 4.ff 4.aa-
.	.	.	.	.	.	.	.	.	.
=18	=18	=18	=18	=18	=18	=18	=18	=18	=18
4.-VII7	B-:7	.	on	on	.	32.228	.	voice	4.B- 4.dd 4.ff 4.aa-
.	.	.	.	.	.	.	.	.	.
*F:	*F:	*	*	*	*	*	*	*	*F:
4.V7	C:7	.	on	on	.	33.182	.	voice	4.C 4.e 4.g 4.b-
=19	=19	=19	=19	=19	=19	=19	=19	=19	=19
*>Letter>B	*>Letter>B	*>Letter>B	*>Letter>B	*>Letter>B	*>Letter>B	*>Letter>B	*>Letter>B	*>Letter>B	*>Letter>B
*>Label>Chorus	*>Label>Chorus	*>Label>Chorus	*>Label>Chorus	*>Label>Chorus	*>Label>Chorus	*>Label>Chorus	*>Label>Chorus	*>Label>Chorus	*>Label>Chorus
2.I	F:maj	We	.	.	.	34.136	newline	voice	2.F 2.a 2.cc
.	.	_	.	.	.	.	.	.	.
.	.	are	.	.	.	.	.	.	.
.	.	the	.	.	.	.	.	.	.
=20	=20	=20	=20	=20	=20	=20	=20	=20	=20
2.iii7	A:min7	champ-	.	.	.	36.035	.	voice	2.A 2.cc 2.ee 2.gg
.	.	-ions	.	.	.	.	.	.	.
.	.	_	.	.	.	.	.	.	.
.	.	.	.	.	.	.	.	.	.
.	.	my	.	.	.	.	.	.	.
=21	=21	=21	=21	=21	=21	=21	=21	=21	=21
2.VI	D:maj	friend	.	.	C	37.934	.	voice	2.D 2.f# 2.a
.	.	_	.	.	.	.	.	.	.
.	.	_	.	.	.	.	.	.	.
=22	=22	=22	=22	=22	=22	=22	=22	=22	=22
4.iv	B-:5	.	.	.	.	39.834	.	voice	4.B- 4.dd- 4.ff
4.v	C:5	.	.	.	.	40.783	.	voice	4.C 4.e- 4.g
.	.	and	.	.	.	.	.	.	.
=23	=23	=23	=23	=23	=23	=23	=23	=23	=23
2.I	F:maj	we'll	.	.	.	41.733	newline	voice	2.F 2.a 2.cc
.	.	_	.	.	.	.	.	.	.
.	.	keep	.	.	.	.	.	.	.
.	.	on	.	.	.	.	.	.	.
=24	=24	=24	=24	=24	=24	=24	=24	=24	=24
2.iii7	A:min7	fight-	.	.	.	43.638	.	voice	2.A 2.cc 2.ee 2.gg
.	.	-ing	.	.	.	.	.	.	.
.	.	_	.	.	.	.	.	.	.
.	.	.	.	.	.	.	.	.	.
.	.	till	.	.	.	.	.	.	.
.	.	the	.	.	.	.	.	.	.
=25	=25	=25	=25	=25	=25	=25	=25	=25	=25
2.IV	B-:maj	end	.	.	C	45.542	.	voice	2.B- 2.dd 2.ff
.	.	_	.	.	.	.	.	.	.
.	.	.	.	.	.	.	.	.	.
=26	=26	=26	=26	=26	=26	=26	=26	=26	=26
2.VI7b	D:7/3	.	.	.	.	47.447	.	voice	2.d 2.F# 2.a 2.cc
=27	=27	=27	=27	=27	=27	=27	=27	=27	=27
2.ii	G:min	We	.	.	.	49.351	newline	voice	2.G 2.b- 2.dd
.	.	are	.	.	.	.	.	.	.
.	.	the	.	.	.	.	.	.	.
=28	=28	=28	=28	=28	=28	=28	=28	=28	=28
2.ii	G:min	champ-	.	.	.	.	.	voice	2.G 2.b- 2.dd
.	.	-ions	.	.	.	.	.	.	.
.	.	.	.	.	.	.	.	.	.
=29	=29	=29	=29	=29	=29	=29	=29	=29	=29
2.iv	B-:min	We	.	.	.	53.173	.	voice	2.B- 2.dd- 2.ff
.	.	are	.	.	.	.	.	.	.
.	.	the	.	.	.	.	.	.	.
=30	=30	=30	=30	=30	=30	=30	=30	=30	=30
4.III7c	A:7(b9)/5	champ-	.	.	.	55.084	.	voice	4.a 4.cc# 4.E 4.gg
4.III7d	A:7(b9)/b7	-ions	.	.	.	56.039	.	voice	4.a 4.cc# 4.ee 4.G
.	.	.	.	.	.	.	.	.	.
=31	=31	=31	=31	=31	=31	=31	=31	=31	=31
2.I	F:maj	No	.	.	.	56.995	newline	voice	2.F 2.a 2.cc
.	.	time	.	.	.	.	.	.	.
.	.	for	.	.	.	.	.	.	.
=32	=32	=32	=32	=32	=32	=32	=32	=32	=32
2.-VII7b	E-:maj7(#11)/3	los-	.	.	.	58.891	.	voice	2.e- 2.G 2.b- 2.dd
.	.	-ers	.	.	.	.	.	.	.
.	.	.	.	.	.	.	.	.	.
.	.	'Cause	.	.	.	.	.	.	.
=33	=33	=33	=33	=33	=33	=33	=33	=33	=33
2.-III	A-:maj6	we	.	.	.	60.787	.	voice	2.A- 2.cc 2.ee-
.	.	are	.	.	.	.	.	.	.
.	.	the	.	.	.	.	.	.	.
=34	=34	=34	=34	=34	=34	=34	=34	=34	=34
2.IV	B-:maj	champ-	.	.	.	62.683	.	voice	2.B- 2.dd 2.ff
.	.	-ions	.	.	.	.	.	.	.
=35	=35	=35	=35	=35	=35	=35	=35	=35	=35
2.v7	C:min7(11)	.	.	.	.	64.579	.	voice	2.C 2.e- 2.g 2.b-
.	.	.	.	.	.	.	.	.	.
.	.	of	.	.	.	.	.	.	.
.	.	the	.	.	.	.	.	.	.
.	.	world	.	.	.	.	.	.	.
=36	=36	=36	=36	=36	=36	=36	=36	=36	=36
*>Letter>C	*>Letter>C	*>Letter>C	*>Letter>C	*>Letter>C	*>Letter>C	*>Letter>C	*>Letter>C	*>Letter>C	*>Letter>C
*>Label>Trans	*>Label>Trans	*>Label>Trans	*>Label>Trans	*>Label>Trans	*>Label>Trans	*>Label>Trans	*>Label>Trans	*>Label>Trans	*>Label>Trans
*f:	*f:	*	*	*	*	*	*	*	*f:
2.i	F:min	_	.	.	.	66.474	newline	piano	2.F 2.a- 2.cc
=37	=37	=37	=37	=37	=37	=37	=37	=37	=37
2.ii7	G:min7	_	.	.	.	68.377	.	piano	2.G 2.b- 2.dd 2.ff
=38	=38	=38	=38	=38	=38	=38	=38	=38	=38
2.i	F:min	_	.	.	.	70.28	.	piano	2.F 2.a- 2.cc
=39	=39	=39	=39	=39	=39	=39	=39	=39	=39
2.ii7	G:min7	.	.	.	.	72.182	.	piano	2.G 2.b- 2.dd 2.ff
=40	=40	=40	=40	=40	=40	=40	=40	=40	=40
2.i	F:min	.	.	.	.	74.085	.	piano	2.F 2.a- 2.cc
=41	=41	=41	=41	=41	=41	=41	=41	=41	=41
2.v	C:sus4(b7)	.	.	.	.	75.988	.	piano	2.C 2.e- 2.g
*c:	*c:	*	*	*	*	*c:	*c:	*c:	*c:
.	.	I've	.	.	.	.	.	.	.
.	.	ta-	.	.	.	.	.	.	.
.	.	-ken	.	.	.	.	.	.	.
.	.	my	.	.	.	.	.	.	.
=42	=42	=42	=42	=42	=42	=42	=42	=42	=42
*>Letter>A	*>Letter>A	*>Letter>A	*>Letter>A	*>Letter>A	*>Letter>A	*>Letter>A	*>Letter>A	*>Letter>A	*>Letter>A
*>Label>Verse	*>Label>Verse	*>Label>Verse	*>Label>Verse	*>Label>Verse	*>Label>Verse	*>Label>Verse	*>Label>Verse	*>Label>Verse	*>Label>Verse
2.i	C:min	bows	.	.	D	77.89	newline	voice	2.C 2.e- 2.g
.	.	.	.	.	.	.	.	.	.
=43	=43	=43	=43	=43	=43	=43	=43	=43	=43
2.vf	G:sus4(b7)/4	.	.	.	.	79.812	.	voice	2.G 2.b- 2.dd
.	.	and	.	.	.	.	.	.	.
.	.	my	.	.	.	.	.	.	.
.	.	_	.	.	.	.	.	.	.
.	.	cur-	.	.	.	.	.	.	.
.	.	-tain	.	.	.	.	.	.	.
.	.	calls	.	.	E	.	.	.	.
=44	=44	=44	=44	=44	=44	=44	=44	=44	=44
2.i	C:min	_	.	.	.	81.733	.	voice	2.C 2.e- 2.g
.	.	.	.	.	.	.	.	.	.
=45	=45	=45	=45	=45	=45	=45	=45	=45	=45
2.vf	G:sus4(b7)/4	.	.	.	.	83.654	.	voice	2.G 2.b- 2.dd
.	.	You	.	.	.	.	.	.	.
.	.	brought	.	.	.	.	.	.	.
.	.	my	.	.	.	.	.	.	.
=46	=46	=46	=46	=46	=46	=46	=46	=46	=46
2.i	C:min	fame	.	.	.	85.576	newline	voice	2.C 2.e- 2.g
.	.	and	.	.	.	.	.	.	.
.	.	for-	.	.	.	.	.	.	.
.	.	_	.	.	.	.	.	.	.
.	.	-tune	.	.	.	.	.	.	.
.	.	and	.	.	.	.	.	.	.
.	.	ev-	.	.	.	.	.	.	.
.	.	-ery-	.	.	.	.	.	.	.
.	.	-thing	.	.	.	.	.	.	.
=47	=47	=47	=47	=47	=47	=47	=47	=47	=47
2.vf	G:sus4(b7)/4	that	.	.	.	87.484	.	voice	2.G 2.b- 2.dd
.	.	goes	.	.	.	.	.	.	.
.	.	with	.	.	.	.	.	.	.
.	.	it	.	.	.	.	.	.	.
.	.	.	.	.	.	.	.	.	.
.	.	I	.	.	.	.	.	.	.
.	.	thank	.	.	.	.	.	.	.
.	.	you	.	.	.	.	.	.	.
=48	=48	=48	=48	=48	=48	=48	=48	=48	=48
2.i	C:min	all	.	.	E	89.393	.	voice	2.C 2.e- 2.g
.	.	.	.	.	.	.	.	.	.
.	.	.	.	.	.	.	.	.	.
=49	=49	=49	=49	=49	=49	=49	=49	=49	=49
2.vf	G:sus4(b7)/4	.	.	.	.	91.301	.	voice	2.G 2.b- 2.dd
.	.	But	.	.	.	.	.	.	.
.	.	it's	.	.	.	.	.	.	.
.	.	been	.	.	.	.	.	.	.
.	.	_	.	.	.	.	.	.	.
.	.	no	.	.	.	.	.	.	.
.	.	bed	.	.	.	.	.	.	.
.	.	of	.	.	.	.	.	.	.
=50	=50	=50	=50	=50	=50	=50	=50	=50	=50
2.-III	E-:maj	ro-	.	.	(D	93.21	newline	voice	2.E-- 2.g- 2.b--
.	.	-ses	.	.	d)	.	.	.	.
.	.	_	.	.	.	.	.	.	.
.	.	_	.	.	.	.	.	.	.
.	.	.	.	.	.	.	.	.	.
=51	=51	=51	=51	=51	=51	=51	=51	=51	=51
2.-viif	B-:sus4(b7)/4	.	.	.	.	95.106	.	voice	2.B- 2.dd- 2.ff
.	.	No	.	.	.	.	.	.	.
.	.	pleas-	.	.	.	.	.	.	.
.	.	-ure	.	.	.	.	.	.	.
=52	=52	=52	=52	=52	=52	=52	=52	=52	=52
2.-III	E-:maj	cruise	.	.	A	97.003	.	voice	2.E-- 2.g- 2.b--
=53	=53	=53	=53	=53	=53	=53	=53	=53	=53
2.-viif	B-:sus4(b7)/4	.	.	.	.	98.9	.	voice	2.B- 2.dd- 2.ff
.	.	Con-	.	.	.	.	.	.	.
.	.	-sid-	.	.	.	.	.	.	.
.	.	-er	.	.	.	.	.	.	.
.	.	it	.	.	.	.	.	.	.
.	.	a	.	.	.	.	.	.	.
.	.	.	.	.	.	.	.	.	.
=54	=54	=54	=54	=54	=54	=54	=54	=54	=54
4.-III	E-:maj	cha-	.	.	.	100.797	newline	voice	4.E-- 4.g- 4.b--
.	.	-llenge	.	.	.	.	.	.	.
.	.	be-	.	.	.	.	.	.	.
.	.	-fore	.	.	.	.	.	.	.
.	.	the	.	.	.	.	.	.	.
4.-VIIb	B-:maj/3	whole	.	.	.	101.746	.	voice	4.b- 4.D 4.ff
.	.	hu-	.	.	.	.	.	.	.
.	.	-man	.	.	.	.	.	.	.
=55	=55	=55	=55	=55	=55	=55	=55	=55	=55
4.i	C:min	race	.	.	.	102.696	.	voice	4.C 4.e- 4.g
.	.	.	.	.	.	.	.	.	.
.	.	and	.	.	.	.	.	.	.
.	.	I	.	.	.	.	.	.	.
4.IV7	F:7	_	.	.	.	103.645	.	voice	4.F 4.a 4.cc 4.ee-
.	.	ain't	.	.	.	.	.	.	.
.	.	gon-	.	.	.	.	.	.	.
.	.	-na	.	.	.	.	.	.	.
.	.	lose	.	.	A	.	.	.	.
=56	=56	=56	=56	=56	=56	=56	=56	=56	=56
2.-VII	B-:maj	_	.	.	.	104.595	.	voice	2.B- 2.dd 2.ff
.	.	.	And	.	.	.	.	.	.
.	.	.	the	.	.	.	.	.	.
.	.	.	beat	.	.	.	.	.	.
.	.	.	will	.	.	.	.	.	.
.	.	.	go	.	.	.	.	.	.
=57	=57	=57	=57	=57	=57	=57	=57	=57	=57
4.-vii	B-:sus4(b7)	.	on	on	.	106.494	.	voice	4.B- 4.dd- 4.ff
.	.	.	.	.	.	.	.	.	.
4.-VII7	B-:7(#11)	.	on	on	.	107.443	.	voice	4.B- 4.dd 4.ff 4.aa-
.	.	.	.	.	.	.	.	.	.
=58	=58	=58	=58	=58	=58	=58	=58	=58	=58
4.-VII7	B-:7	.	on	on	.	108.393	.	voice	4.B- 4.dd 4.ff 4.aa-
.	.	.	.	.	.	.	.	.	.
*F:	*F:	*	*	*	*	*	*	*	*F:
4.V7	C:7	.	on	on	.	109.342	.	voice	4.C 4.e 4.g 4.b-
.	.	We	.	.	.	.	.	.	.
=59	=59	=59	=59	=59	=59	=59	=59	=59	=59
*>Letter>B	*>Letter>B	*>Letter>B	*>Letter>B	*>Letter>B	*>Letter>B	*>Letter>B	*>Letter>B	*>Letter>B	*>Letter>B
*>Label>Chorus	*>Label>Chorus	*>Label>Chorus	*>Label>Chorus	*>Label>Chorus	*>Label>Chorus	*>Label>Chorus	*>Label>Chorus	*>Label>Chorus	*>Label>Chorus
2.I	F:maj	_	.	.	.	110.292	newline	voice	2.F 2.a 2.cc
.	.	_	.	.	.	.	.	.	.
.	.	are	.	.	.	.	.	.	.
.	.	the	.	.	.	.	.	.	.
=60	=60	=60	=60	=60	=60	=60	=60	=60	=60
2.iii7	A:min7	champ-	.	.	.	112.197	.	voice	2.A 2.cc 2.ee 2.gg
.	.	-ions	.	.	.	.	.	.	.
.	.	_	.	.	.	.	.	.	.
.	.	.	.	.	.	.	.	.	.
.	.	my	.	.	.	.	.	.	.
=61	=61	=61	=61	=61	=61	=61	=61	=61	=61
2.vi	D:min	friend	.	.	C	114.101	.	voice	2.D 2.f 2.a
.	.	_	.	.	.	.	.	.	.
.	.	_	.	.	.	.	.	.	.
=62	=62	=62	=62	=62	=62	=62	=62	=62	=62
4.iv	B-:5	.	.	.	.	116.006	.	voice	4.B- 4.dd- 4.ff
4.v	C:5	.	.	.	.	116.959	.	voice	4.C 4.e- 4.g
.	.	and	.	.	.	.	.	.	.
=63	=63	=63	=63	=63	=63	=63	=63	=63	=63
2.I	F:maj	we'll	.	.	.	117.911	newline	voice	2.F 2.a 2.cc
.	.	_	.	.	.	.	.	.	.
.	.	keep	.	.	.	.	.	.	.
.	.	on	.	.	.	.	.	.	.
=64	=64	=64	=64	=64	=64	=64	=64	=64	=64
2.iii7	A:min7	fight-	.	.	.	119.798	.	voice	2.A 2.cc 2.ee 2.gg
.	.	-ing	.	.	.	.	.	.	.
.	.	_	.	.	.	.	.	.	.
.	.	till	.	.	.	.	.	.	.
=65	=65	=65	=65	=65	=65	=65	=65	=65	=65
2.IV	B-:maj	_	.	.	.	121.684	.	voice	2.B- 2.dd 2.ff
.	.	the	.	.	.	.	.	.	.
.	.	end	.	.	C	.	.	.	.
.	.	_	.	.	.	.	.	.	.
=66	=66	=66	=66	=66	=66	=66	=66	=66	=66
2.VI7b	D:7/3	.	.	.	.	123.571	.	voice	2.d 2.F# 2.a 2.cc
=67	=67	=67	=67	=67	=67	=67	=67	=67	=67
2.ii	G:min	We	.	.	.	125.457	newline	voice	2.G 2.b- 2.dd
.	.	are	.	.	.	.	.	.	.
.	.	the	.	.	.	.	.	.	.
=68	=68	=68	=68	=68	=68	=68	=68	=68	=68
2.ii	G:min	champ-	.	.	.	.	.	voice	2.G 2.b- 2.dd
.	.	-ions	.	.	.	.	.	.	.
.	.	.	.	.	.	.	.	.	.
=69	=69	=69	=69	=69	=69	=69	=69	=69	=69
2.iv	B-:min	We	.	.	.	129.264	.	voice	2.B- 2.dd- 2.ff
.	.	are	.	.	.	.	.	.	.
.	.	the	.	.	.	.	.	.	.
=70	=70	=70	=70	=70	=70	=70	=70	=70	=70
4.III7c	A:7(b9)/5	champ-	.	.	.	131.168	.	voice	4.a 4.cc# 4.E 4.gg
4.III7d	A:7(b9)/b7	-ions	.	.	.	132.119	.	voice	4.a 4.cc# 4.ee 4.G
.	.	.	.	.	.	.	.	.	.
=71	=71	=71	=71	=71	=71	=71	=71	=71	=71
2.I	F:maj	No	.	.	.	133.071	newline	voice	2.F 2.a 2.cc
.	.	time	.	.	.	.	.	.	.
.	.	for	.	.	.	.	.	.	.
=72	=72	=72	=72	=72	=72	=72	=72	=72	=72
2.-VII7b	E-:maj7(#11)/3	los-	.	.	.	134.958	.	voice	2.e- 2.G 2.b- 2.dd
.	.	-ers	.	.	.	.	.	.	.
.	.	.	.	.	.	.	.	.	.
.	.	'Cause	.	.	.	.	.	.	.
=73	=73	=73	=73	=73	=73	=73	=73	=73	=73
2.-III	A-:maj6	we	.	.	.	136.844	.	voice	2.A- 2.cc 2.ee-
.	.	are	.	.	.	.	.	.	.
.	.	the	.	.	.	.	.	.	.
=74	=74	=74	=74	=74	=74	=74	=74	=74	=74
2.IV	B-:maj	champ-	.	.	.	138.731	.	voice	2.B- 2.dd 2.ff
.	.	-ions	.	.	.	.	.	.	.
=75	=75	=75	=75	=75	=75	=75	=75	=75	=75
2.v7	C:min7(11)	.	.	.	.	140.617	.	voice	2.C 2.e- 2.g 2.b-
.	.	.	.	.	.	.	.	.	.
.	.	.	of	.	.	.	.	.	.
.	.	.	the	.	.	.	.	.	.
.	.	.	world	.	.	.	.	.	.
=76	=76	=76	=76	=76	=76	=76	=76	=76	=76
*>Letter>B	*>Letter>B	*>Letter>B	*>Letter>B	*>Letter>B	*>Letter>B	*>Letter>B	*>Letter>B	*>Letter>B	*>Letter>B
*>Label>Chorus	*>Label>Chorus	*>Label>Chorus	*>Label>Chorus	*>Label>Chorus	*>Label>Chorus	*>Label>Chorus	*>Label>Chorus	*>Label>Chorus	*>Label>Chorus
2.I	F:maj	We	_	.	.	142.504	newline	voice	2.F 2.a 2.cc
.	.	_	_	.	.	.	.	.	.
.	.	are	.	.	.	.	.	.	.
.	.	the	.	.	.	.	.	.	.
=77	=77	=77	=77	=77	=77	=77	=77	=77	=77
2.iii7	A:min7	champ-	.	.	.	144.362	.	voice	2.A 2.cc 2.ee 2.gg
.	.	-ions	.	.	.	.	.	.	.
.	.	_	.	.	.	.	.	.	.
.	.	.	.	.	.	.	.	.	.
.	.	my	.	.	.	.	.	.	.
=78	=78	=78	=78	=78	=78	=78	=78	=78	=78
2.vi	D:min	friend	.	.	C	146.22	.	voice	2.D 2.f 2.a
.	.	_	.	.	.	.	.	.	.
.	.	_	.	.	.	.	.	.	.
=79	=79	=79	=79	=79	=79	=79	=79	=79	=79
4.iv	B-:5	.	.	.	.	148.077	.	voice	4.B- 4.dd- 4.ff
4.v	C:5	.	.	.	.	149.006	.	voice	4.C 4.e- 4.g
.	.	and	.	.	.	.	.	.	.
=80	=80	=80	=80	=80	=80	=80	=80	=80	=80
2.I	F:maj	we'll	.	.	.	149.935	newline	voice	2.F 2.a 2.cc
.	.	_	.	.	.	.	.	.	.
.	.	keep	.	.	.	.	.	.	.
.	.	on	.	.	.	.	.	.	.
=81	=81	=81	=81	=81	=81	=81	=81	=81	=81
2.iii7	A:min7	fight-	.	.	.	151.776	.	voice	2.A 2.cc 2.ee 2.gg
.	.	_	.	.	.	.	.	.	.
.	.	-ing	.	.	.	.	.	.	.
.	.	_	.	.	.	.	.	.	.
=82	=82	=82	=82	=82	=82	=82	=82	=82	=82
2.IV	B-:maj	till	.	.	.	153.616	.	voice	2.B- 2.dd 2.ff
.	.	the	.	.	.	.	.	.	.
.	.	end	.	.	C	.	.	.	.
.	.	_	.	.	.	.	.	.	.
=83	=83	=83	=83	=83	=83	=83	=83	=83	=83
2.VI7b	D:7/3	.	.	.	.	155.456	.	voice	2.d 2.F# 2.a 2.cc
.	.	Ah	.	.	.	.	.	.	.
=84	=84	=84	=84	=84	=84	=84	=84	=84	=84
2.ii	G:min	We	.	.	.	157.297	newline	voice	2.G 2.b- 2.dd
.	.	are	.	.	.	.	.	.	.
.	.	the	.	.	.	.	.	.	.
=85	=85	=85	=85	=85	=85	=85	=85	=85	=85
2.ii	G:min	champ-	.	.	.	.	.	voice	2.G 2.b- 2.dd
.	.	-ions	.	.	.	.	.	.	.
.	.	.	.	.	.	.	.	.	.
=86	=86	=86	=86	=86	=86	=86	=86	=86	=86
2.iv	B-:min	We	.	.	.	161.071	.	voice	2.B- 2.dd- 2.ff
.	.	are	.	.	.	.	.	.	.
.	.	the	.	.	.	.	.	.	.
=87	=87	=87	=87	=87	=87	=87	=87	=87	=87
4.III7c	A:7(b9)/5	champ-	.	.	.	162.958	.	voice	4.a 4.cc# 4.E 4.gg
4.III7d	A:7(b9)/b7	-ions	.	.	.	163.902	.	voice	4.a 4.cc# 4.ee 4.G
.	.	.	.	.	.	.	.	.	.
=88	=88	=88	=88	=88	=88	=88	=88	=88	=88
2.I	F:maj	No	.	.	.	164.846	newline	voice	2.F 2.a 2.cc
.	.	time	.	.	.	.	.	.	.
.	.	for	.	.	.	.	.	.	.
=89	=89	=89	=89	=89	=89	=89	=89	=89	=89
2.-VII7b	E-:maj7(#11)/3	los-	.	.	.	166.75	.	voice	2.e- 2.G 2.b- 2.dd
.	.	-ers	.	.	.	.	.	.	.
.	.	.	.	.	.	.	.	.	.
.	.	'Cause	.	.	.	.	.	.	.
=90	=90	=90	=90	=90	=90	=90	=90	=90	=90
2.-III	A-:maj6	we	.	.	.	168.655	.	voice	2.A- 2.cc 2.ee-
.	.	are	.	.	.	.	.	.	.
.	.	the	.	.	.	.	.	.	.
=91	=91	=91	=91	=91	=91	=91	=91	=91	=91
2.IV	B-:maj	champ-	.	.	.	170.56	.	voice	2.B- 2.dd 2.ff
.	.	-ions	.	.	.	.	.	.	.
=92	=92	=92	=92	=92	=92	=92	=92	=92	=92
2.v7	C:min7(11)	.	.	.	.	172.464	.	voice	2.C 2.e- 2.g 2.b-
1r;	N	.	.	.	.	178.654	.	r	1r;
1r;	N	.	.	.	.	183.171	.	r	1r;
*-	*-	*-	*-	*-	*-	*-	*-	*-	*-
!!!BillboardChartDate: 1978/01/14
!!!BillboardPeak: 4
!!!BillboardWeeksOnChart: 27
!!!COC: Queen
!!!ENC: Nathaniel Condit-Schultz
!!!EST: Awating manual error checking and editing.
!!!OTL: We Are The Champions
!!!RDF**harte: Chris Harte's syntax, used by MIREX
!!!RDF**harmony: **recip + pitch class of root + harmonic quality
!!!RDF**leadinstrument: original McGill primary instrumentation annotation
!!!RDF**phrase: newline = linebreak in original McGill transcription
!!!RDF**timestamp: McGill audio timestamp in seconds
!!!RDT: 2017/01/12/
!!!SampleActualRank: 10
!!!SampleID#: 0588
!!!SampleTargetRank: 10
!!!MBID: 3604eb06-4bc2-4416-9b31-ceadae51bc70
